X: 10171
M: C
L: 1/8
K: D
V: 1 staves=3
|: a>g |\
fd/d/ dd d2g>f | e2A>A A2g>f | eA/A/ AA Aceg | f2d>d d2F>G |\
V: 2
|: f>e |\
dF/F/ FF F2e>d | c2A>A A2e>d | cA/A/ AA A2ce | d2F>F F2D>E |\
V: 3 clef=bass middle=d
d2 |\
d4 d2d2 | d2d>d d2z2 | d2z2 c2d2 | A2A>A A2z2 |\
d4 d2d2 | d2d>d d2z2 | c2g2 a2A2 | d2d>d d2 :|
|: z2 |\
dd/d/ dd d2z2 | A2A>A A2z2 | AA/A/ AA A2z2 | d2d>d d2z2 |\
d4 d2d2 | d2d>d d2z2 | d2g2 a2A2 | d2d>d d2 :|


